content/blogs/regnskap/hva-er-anskaffelser/kontraktstyper-oversikt.svg

<svg xmlns="http://www.w3.org/2000/svg" width="800" height="600"><defs><linearGradient id="a" x1="0%" x2="100%" y1="0%" y2="100%"><stop offset="0%" style="stop-color:#d4edda;stop-opacity:1"/><stop offset="100%" style="stop-color:#c3e6cb;stop-opacity:1"/></linearGradient><linearGradient id="b" x1="0%" x2="100%" y1="0%" y2="100%"><stop offset="0%" style="stop-color:#f8d7da;stop-opacity:1"/><stop offset="100%" style="stop-color:#f5c6cb;stop-opacity:1"/></linearGradient><linearGradient id="c" x1="0%" x2="100%" y1="0%" y2="100%"><stop offset="0%" style="stop-color:#cce5ff;stop-opacity:1"/><stop offset="100%" style="stop-color:#b3d9ff;stop-opacity:1"/></linearGradient><linearGradient id="d" x1="0%" x2="100%" y1="0%" y2="100%"><stop offset="0%" style="stop-color:#fff3cd;stop-opacity:1"/><stop offset="100%" style="stop-color:#ffeaa7;stop-opacity:1"/></linearGradient></defs><path fill="#f8f9fa" d="M0 0h800v600H0z"/><text x="400" y="30" fill="#1976d2" font-family="Arial, sans-serif" font-size="24" font-weight="bold" text-anchor="middle">
    Kontraktstyper i Anskaffelser
  </text><rect width="320" height="220" x="50" y="70" fill="url(#a)" stroke="#28a745" stroke-width="3" rx="15"/><text x="210" y="100" fill="#155724" font-family="Arial, sans-serif" font-size="18" font-weight="bold" text-anchor="middle">
    Fast Pris Kontrakt
  </text><circle cx="210" cy="140" r="25" fill="#28a745" opacity=".3"/><path fill="none" stroke="#28a745" stroke-width="3" d="M195 125h30v30h-30z"/><text x="210" y="145" fill="#28a745" font-family="Arial, sans-serif" font-size="16" font-weight="bold" text-anchor="middle">
    Kr
  </text><text x="210" y="180" fill="#155724" font-family="Arial, sans-serif" font-size="12" font-weight="bold" text-anchor="middle">
    Kjennetegn:
  </text><text x="70" y="200" fill="#155724" font-family="Arial, sans-serif" font-size="11">
    • Avtalt pris uavhengig av kostnader
  </text><text x="70" y="215" fill="#155724" font-family="Arial, sans-serif" font-size="11">
    • Lav risiko for kjøper
  </text><text x="70" y="230" fill="#155724" font-family="Arial, sans-serif" font-size="11">
    • Høy risiko for leverandør
  </text><text x="70" y="245" fill="#155724" font-family="Arial, sans-serif" font-size="11">
    • Forutsigbare kostnader
  </text><text x="70" y="260" fill="#155724" font-family="Arial, sans-serif" font-size="11">
    • Krever god spesifikasjon
  </text><text x="70" y="275" fill="#155724" font-family="Arial, sans-serif" font-size="11">
    • Mest brukt i standardanskaffelser
  </text><rect width="320" height="220" x="430" y="70" fill="url(#b)" stroke="#dc3545" stroke-width="3" rx="15"/><text x="590" y="100" fill="#721c24" font-family="Arial, sans-serif" font-size="18" font-weight="bold" text-anchor="middle">
    Kostnad Pluss Kontrakt
  </text><circle cx="590" cy="140" r="25" fill="#dc3545" opacity=".3"/><path stroke="#dc3545" stroke-width="4" d="M580 140h20m-10-10v20"/><text x="590" y="155" fill="#dc3545" font-family="Arial, sans-serif" font-size="10" text-anchor="middle">%</text><text x="590" y="180" fill="#721c24" font-family="Arial, sans-serif" font-size="12" font-weight="bold" text-anchor="middle">
    Kjennetegn:
  </text><text x="450" y="200" fill="#721c24" font-family="Arial, sans-serif" font-size="11">
    • Faktiske kostnader + påslag
  </text><text x="450" y="215" fill="#721c24" font-family="Arial, sans-serif" font-size="11">
    • Høy risiko for kjøper
  </text><text x="450" y="230" fill="#721c24" font-family="Arial, sans-serif" font-size="11">
    • Lav risiko for leverandør
  </text><text x="450" y="245" fill="#721c24" font-family="Arial, sans-serif" font-size="11">
    • Krever god kostnadskontroll
  </text><text x="450" y="260" fill="#721c24" font-family="Arial, sans-serif" font-size="11">
    • Brukes ved usikre prosjekter
  </text><text x="450" y="275" fill="#721c24" font-family="Arial, sans-serif" font-size="11">
    • Høy transparens nødvendig
  </text><rect width="320" height="220" x="50" y="320" fill="url(#c)" stroke="#007bff" stroke-width="3" rx="15"/><text x="210" y="350" fill="#004085" font-family="Arial, sans-serif" font-size="18" font-weight="bold" text-anchor="middle">
    Enhetspris Kontrakt
  </text><circle cx="210" cy="390" r="25" fill="#007bff" opacity=".3"/><path fill="none" stroke="#007bff" stroke-width="3" d="M195 375h30v30h-30z"/><path stroke="#007bff" stroke-width="2" d="M200 385h20m-20 5h20m-20 5h20"/><text x="210" y="430" fill="#004085" font-family="Arial, sans-serif" font-size="12" font-weight="bold" text-anchor="middle">
    Kjennetegn:
  </text><text x="70" y="450" fill="#004085" font-family="Arial, sans-serif" font-size="11">
    • Pris per enhet/time
  </text><text x="70" y="465" fill="#004085" font-family="Arial, sans-serif" font-size="11">
    • Middels risiko for begge parter
  </text><text x="70" y="480" fill="#004085" font-family="Arial, sans-serif" font-size="11">
    • Fleksibel mengdetilpasning
  </text><text x="70" y="495" fill="#004085" font-family="Arial, sans-serif" font-size="11">
    • Krever god måling/telling
  </text><text x="70" y="510" fill="#004085" font-family="Arial, sans-serif" font-size="11">
    • Vanlig i tjenesteavtaler
  </text><text x="70" y="525" fill="#004085" font-family="Arial, sans-serif" font-size="11">
    • Enkel å administrere
  </text><rect width="320" height="220" x="430" y="320" fill="url(#d)" stroke="#ffc107" stroke-width="3" rx="15"/><text x="590" y="350" fill="#856404" font-family="Arial, sans-serif" font-size="18" font-weight="bold" text-anchor="middle">
    Insentiv Kontrakt
  </text><circle cx="590" cy="390" r="25" fill="#ffc107" opacity=".3"/><path fill="none" stroke="#ffc107" stroke-width="3" d="m580 380 10-10 10 10-10 10-10-10"/><path stroke="#ffc107" stroke-width="3" d="M585 395h10"/><circle cx="590" cy="400" r="3" fill="#ffc107"/><text x="590" y="430" fill="#856404" font-family="Arial, sans-serif" font-size="12" font-weight="bold" text-anchor="middle">
    Kjennetegn:
  </text><text x="450" y="450" fill="#856404" font-family="Arial, sans-serif" font-size="11">
    • Bonus/malus basert på resultat
  </text><text x="450" y="465" fill="#856404" font-family="Arial, sans-serif" font-size="11">
    • Motiverer til god ytelse
  </text><text x="450" y="480" fill="#856404" font-family="Arial, sans-serif" font-size="11">
    • Delt risiko og gevinst
  </text><text x="450" y="495" fill="#856404" font-family="Arial, sans-serif" font-size="11">
    • Krever målbare kriterier
  </text><text x="450" y="510" fill="#856404" font-family="Arial, sans-serif" font-size="11">
    • Kompleks å administrere
  </text><text x="450" y="525" fill="#856404" font-family="Arial, sans-serif" font-size="11">
    • Brukes i strategiske avtaler
  </text><path fill="#e9ecef" stroke="#6c757d" d="M50 560h700v30H50z"/><text x="150" y="580" fill="#495057" font-family="Arial, sans-serif" font-size="12" font-weight="bold" text-anchor="middle">
    Lav risiko kjøper
  </text><text x="300" y="580" fill="#495057" font-family="Arial, sans-serif" font-size="12" text-anchor="middle">
    ←
  </text><text x="400" y="580" fill="#495057" font-family="Arial, sans-serif" font-size="12" font-weight="bold" text-anchor="middle">
    Balansert risiko
  </text><text x="500" y="580" fill="#495057" font-family="Arial, sans-serif" font-size="12" text-anchor="middle">
    →
  </text><text x="650" y="580" fill="#495057" font-family="Arial, sans-serif" font-size="12" font-weight="bold" text-anchor="middle">
    Høy risiko kjøper
  </text></svg>

<svg width="800" height="600" xmlns="http://www.w3.org/2000/svg">
  <defs>
    <linearGradient id="fixedGradient" x1="0%" y1="0%" x2="100%" y2="100%">
      <stop offset="0%" style="stop-color:#d4edda;stop-opacity:1" />
      <stop offset="100%" style="stop-color:#c3e6cb;stop-opacity:1" />
    </linearGradient>
    <linearGradient id="costPlusGradient" x1="0%" y1="0%" x2="100%" y2="100%">
      <stop offset="0%" style="stop-color:#f8d7da;stop-opacity:1" />
      <stop offset="100%" style="stop-color:#f5c6cb;stop-opacity:1" />
    </linearGradient>
    <linearGradient id="unitGradient" x1="0%" y1="0%" x2="100%" y2="100%">
      <stop offset="0%" style="stop-color:#cce5ff;stop-opacity:1" />
      <stop offset="100%" style="stop-color:#b3d9ff;stop-opacity:1" />
    </linearGradient>
    <linearGradient id="incentiveGradient" x1="0%" y1="0%" x2="100%" y2="100%">
      <stop offset="0%" style="stop-color:#fff3cd;stop-opacity:1" />
      <stop offset="100%" style="stop-color:#ffeaa7;stop-opacity:1" />
    </linearGradient>
  </defs>
  

  <rect width="800" height="600" fill="#f8f9fa"/>
  

  <text x="400" y="30" font-family="Arial, sans-serif" font-size="24" font-weight="bold" text-anchor="middle" fill="#1976d2">
    Kontraktstyper i Anskaffelser
  </text>
  

  <rect x="50" y="70" width="320" height="220" fill="url(#fixedGradient)" stroke="#28a745" stroke-width="3" rx="15"/>
  <text x="210" y="100" font-family="Arial, sans-serif" font-size="18" font-weight="bold" text-anchor="middle" fill="#155724">
    Fast Pris Kontrakt
  </text>
  

  <circle cx="210" cy="140" r="25" fill="#28a745" opacity="0.3"/>
  <rect x="195" y="125" width="30" height="30" fill="none" stroke="#28a745" stroke-width="3"/>
  <text x="210" y="145" font-family="Arial, sans-serif" font-size="16" font-weight="bold" text-anchor="middle" fill="#28a745">
    Kr
  </text>
  
  <text x="210" y="180" font-family="Arial, sans-serif" font-size="12" font-weight="bold" text-anchor="middle" fill="#155724">
    Kjennetegn:
  </text>
  <text x="70" y="200" font-family="Arial, sans-serif" font-size="11" fill="#155724">
    • Avtalt pris uavhengig av kostnader
  </text>
  <text x="70" y="215" font-family="Arial, sans-serif" font-size="11" fill="#155724">
    • Lav risiko for kjøper
  </text>
  <text x="70" y="230" font-family="Arial, sans-serif" font-size="11" fill="#155724">
    • Høy risiko for leverandør
  </text>
  <text x="70" y="245" font-family="Arial, sans-serif" font-size="11" fill="#155724">
    • Forutsigbare kostnader
  </text>
  <text x="70" y="260" font-family="Arial, sans-serif" font-size="11" fill="#155724">
    • Krever god spesifikasjon
  </text>
  <text x="70" y="275" font-family="Arial, sans-serif" font-size="11" fill="#155724">
    • Mest brukt i standardanskaffelser
  </text>
  

  <rect x="430" y="70" width="320" height="220" fill="url(#costPlusGradient)" stroke="#dc3545" stroke-width="3" rx="15"/>
  <text x="590" y="100" font-family="Arial, sans-serif" font-size="18" font-weight="bold" text-anchor="middle" fill="#721c24">
    Kostnad Pluss Kontrakt
  </text>
  

  <circle cx="590" cy="140" r="25" fill="#dc3545" opacity="0.3"/>
  <path d="M580 140 L600 140 M590 130 L590 150" stroke="#dc3545" stroke-width="4"/>
  <text x="590" y="155" font-family="Arial, sans-serif" font-size="10" text-anchor="middle" fill="#dc3545">%</text>
  
  <text x="590" y="180" font-family="Arial, sans-serif" font-size="12" font-weight="bold" text-anchor="middle" fill="#721c24">
    Kjennetegn:
  </text>
  <text x="450" y="200" font-family="Arial, sans-serif" font-size="11" fill="#721c24">
    • Faktiske kostnader + påslag
  </text>
  <text x="450" y="215" font-family="Arial, sans-serif" font-size="11" fill="#721c24">
    • Høy risiko for kjøper
  </text>
  <text x="450" y="230" font-family="Arial, sans-serif" font-size="11" fill="#721c24">
    • Lav risiko for leverandør
  </text>
  <text x="450" y="245" font-family="Arial, sans-serif" font-size="11" fill="#721c24">
    • Krever god kostnadskontroll
  </text>
  <text x="450" y="260" font-family="Arial, sans-serif" font-size="11" fill="#721c24">
    • Brukes ved usikre prosjekter
  </text>
  <text x="450" y="275" font-family="Arial, sans-serif" font-size="11" fill="#721c24">
    • Høy transparens nødvendig
  </text>
  

  <rect x="50" y="320" width="320" height="220" fill="url(#unitGradient)" stroke="#007bff" stroke-width="3" rx="15"/>
  <text x="210" y="350" font-family="Arial, sans-serif" font-size="18" font-weight="bold" text-anchor="middle" fill="#004085">
    Enhetspris Kontrakt
  </text>
  

  <circle cx="210" cy="390" r="25" fill="#007bff" opacity="0.3"/>
  <rect x="195" y="375" width="30" height="30" fill="none" stroke="#007bff" stroke-width="3"/>
  <path d="M200 385 L220 385 M200 390 L220 390 M200 395 L220 395" stroke="#007bff" stroke-width="2"/>
  
  <text x="210" y="430" font-family="Arial, sans-serif" font-size="12" font-weight="bold" text-anchor="middle" fill="#004085">
    Kjennetegn:
  </text>
  <text x="70" y="450" font-family="Arial, sans-serif" font-size="11" fill="#004085">
    • Pris per enhet/time
  </text>
  <text x="70" y="465" font-family="Arial, sans-serif" font-size="11" fill="#004085">
    • Middels risiko for begge parter
  </text>
  <text x="70" y="480" font-family="Arial, sans-serif" font-size="11" fill="#004085">
    • Fleksibel mengdetilpasning
  </text>
  <text x="70" y="495" font-family="Arial, sans-serif" font-size="11" fill="#004085">
    • Krever god måling/telling
  </text>
  <text x="70" y="510" font-family="Arial, sans-serif" font-size="11" fill="#004085">
    • Vanlig i tjenesteavtaler
  </text>
  <text x="70" y="525" font-family="Arial, sans-serif" font-size="11" fill="#004085">
    • Enkel å administrere
  </text>
  

  <rect x="430" y="320" width="320" height="220" fill="url(#incentiveGradient)" stroke="#ffc107" stroke-width="3" rx="15"/>
  <text x="590" y="350" font-family="Arial, sans-serif" font-size="18" font-weight="bold" text-anchor="middle" fill="#856404">
    Insentiv Kontrakt
  </text>
  

  <circle cx="590" cy="390" r="25" fill="#ffc107" opacity="0.3"/>
  <path d="M580 380 L590 370 L600 380 L590 390 L580 380" fill="none" stroke="#ffc107" stroke-width="3"/>
  <path d="M585 395 L595 395" stroke="#ffc107" stroke-width="3"/>
  <circle cx="590" cy="400" r="3" fill="#ffc107"/>
  
  <text x="590" y="430" font-family="Arial, sans-serif" font-size="12" font-weight="bold" text-anchor="middle" fill="#856404">
    Kjennetegn:
  </text>
  <text x="450" y="450" font-family="Arial, sans-serif" font-size="11" fill="#856404">
    • Bonus/malus basert på resultat
  </text>
  <text x="450" y="465" font-family="Arial, sans-serif" font-size="11" fill="#856404">
    • Motiverer til god ytelse
  </text>
  <text x="450" y="480" font-family="Arial, sans-serif" font-size="11" fill="#856404">
    • Delt risiko og gevinst
  </text>
  <text x="450" y="495" font-family="Arial, sans-serif" font-size="11" fill="#856404">
    • Krever målbare kriterier
  </text>
  <text x="450" y="510" font-family="Arial, sans-serif" font-size="11" fill="#856404">
    • Kompleks å administrere
  </text>
  <text x="450" y="525" font-family="Arial, sans-serif" font-size="11" fill="#856404">
    • Brukes i strategiske avtaler
  </text>
  

  <rect x="50" y="560" width="700" height="30" fill="#e9ecef" stroke="#6c757d" stroke-width="1"/>
  <text x="150" y="580" font-family="Arial, sans-serif" font-size="12" font-weight="bold" text-anchor="middle" fill="#495057">
    Lav risiko kjøper
  </text>
  <text x="300" y="580" font-family="Arial, sans-serif" font-size="12" text-anchor="middle" fill="#495057">
    ←
  </text>
  <text x="400" y="580" font-family="Arial, sans-serif" font-size="12" font-weight="bold" text-anchor="middle" fill="#495057">
    Balansert risiko
  </text>
  <text x="500" y="580" font-family="Arial, sans-serif" font-size="12" text-anchor="middle" fill="#495057">
    →
  </text>
  <text x="650" y="580" font-family="Arial, sans-serif" font-size="12" font-weight="bold" text-anchor="middle" fill="#495057">
    Høy risiko kjøper
  </text>
</svg>
